svg/u1f353.svg

<svg viewBox="0 0 128 128" xmlns="http://www.w3.org/2000/svg">
  <path d="M73.13,16.43c-0.58-0.58-17.72-0.37-17.72-0.37L16.14,59.68c0,0-1.37,12.84-0.11,18.22 c0.71,3.03,2.16,8.48,6.56,14.95c3.01,4.43,5.37,6.35,5.37,6.35l23.44,10.13l39.19,4.03l22.95-14.89c0,0,1.71-6.84,1.1-11.84 c-0.61-5.01-1.59-8.79-1.47-12.09c0.12-3.3,2.08-16.55-1.02-26.04c-2.74-8.38-10.82-19.99-20.95-25.97S73.13,16.43,73.13,16.43z" fill="#FF2A23"/>
  <path d="M67.15,116.99c5.55,1.35,16.32,6.28,20.96,6.99c4.8,0.73,11.63,0.8,18.87-4.69 c6.46-4.9,9.44-9.88,9.8-14.1c0.51-5.91-0.52-11.14-0.84-13.64c-0.31-2.5-1.72-7.94-1.72-7.94s-4.01,8.88-9.02,13.05 c-5.01,4.17-17.1,9.7-29.09,10.11c-11.99,0.42-20.02,0.73-28.47-1.36s-22.8-9.51-22.8-9.51s5.04,7.5,14.88,13.05 c7.43,4.19,11.9,5.26,14.91,5.94C59.31,115.96,62.87,115.94,67.15,116.99z" fill="#DC0D27"/>
  <path d="M35.87,33.05c0,0-20.53,30.67-20.72,35.78c-0.21,5.84,1,9.32,1,9.32s4.17-0.15,8.24-2.77 c1.89-1.21,3.31-2.42,3.31-2.42s5.79,8.11,7.66,8.21s6.85-3.5,9.04-6.1c2.19-2.61,3.65-7.41,3.65-7.41s3.38,1.53,10.47,1.32 s9.27-0.84,9.79-1.36c0.52-0.52,1.22-3.81,1.84-6.42c0.63-2.61,0.69-6.33,0.69-7.9c0-1.56-0.44-3.94-0.44-3.94s5.59-2.65,8.2-5.16 c2.61-2.5,3.86-3.75,4.28-4.59c0.42-0.83-1.15-4.9-2.92-7.61s-4.17-4.59-4.17-4.59s3.55-2.82,5.01-4.38s3.36-3.99,3.36-3.99 s-3.04-1.33-6.69-2.16c-3.65-0.83-10.95-1.77-10.95-1.77L35.87,33.05z" fill="#DC0D27"/>
  <path d="M19.32,52.84c-0.29,0.2-9.08,13.97-9.18,15.23c-0.1,1.27-0.31,3.31,1.07,4 c0.98,0.49,1.76-0.39,2.44-0.98s2.05-1.46,3.61-2.25s4.24-1.32,6.15-2.44c2.83-1.66,5.37-5.66,5.37-5.66l6.93,9.96l-2.47,6.14 c0,0,1.74,2.09,2.09,2.35c0.63,0.47,4.39-2.34,6.34-7.32s2.44-11.33,2.44-11.33s3.91,2.73,7.72,3.52c3.81,0.78,11.61,0.39,12.11-0.2 c0.44-0.52,0.7-7.96,0.31-11.28c-0.39-3.32-2.22-7.71-2.22-7.71s3.96,0.63,8.65-0.64s8.2-4,8.4-5.08s-2.68-3.82-2.68-3.82 l-11.58-4.09l-1.4-3.49c0,0,5.92-1.74,9.01-5.4c2.23-2.65,6.23-6.01,6.23-7.58s-2.52-1.21-2.52-1.21l-21.48,8.59L19.32,52.84z" fill="#759937"/>
  <path d="M29.77,26.42c6.31-5.8,12.68-10.56,22.95-13.23c10.23-2.66,17.37-1.35,19.03-1.05 c1.66,0.29,6.66,1.2,6.27,1.73c-0.17,0.23-3.82,1.96-7.44,4.3s-5.14,3.1-6.05,3.61c-1.36,0.76-3.32,1.81-3.24,3.03 c0.12,1.66,2.36,1.76,4.8,3.03c2.44,1.27,5.47,3.22,7.72,5.18s3.38,2.74,3.69,3.51c0.34,0.84-7.01,4.79-11.99,4.69 s-7.32-2.34-8.5-0.59c-1.17,1.76,2.54,6.15,3.52,11.04s0.98,9.77,0.98,9.77S54.03,62,50.57,60.75c-5.21-1.88-5.86-5.89-8.69-5.37 c-3.83,0.7-0.41,7.29-3.1,15.16c-2.4,7.04-4.44,7.58-4.44,7.58s-3.31-3.41-4.49-5.27s-2.53-2.82-2.82-6.82 c-0.29-4,0.2-9.08-1.76-9.28s-2.44,3.91-4.69,5.96s-5.66,3.13-7.23,4.39c-1.56,1.27-3.18,3.53-3.18,3.53s-1.12-6.75,1.91-15.83 S20.1,35.31,29.77,26.42z" fill="#98B715"/>
  <path d="M17.95,7.09c0.25-0.93,4.52-3.52,6.57-3.42s1.64,0.68,1.93,1.46s-1.17,8.2,1.17,12.5 c2.11,3.87,4,5.76,8.2,5.66s-5.27,12.4-5.27,12.4s-8.11-4.49-11.33-12.79S17.56,8.55,17.95,7.09z" fill="#98B715"/>
  <path d="M101.21,85.18c-1.85,0.09-3.55,2.61-2.58,6.03c0.8,2.83,2.83,3.88,4.31,3.69 c1.48-0.18,2.83-2.46,2.28-5.66C104.79,86.81,103.67,85.06,101.21,85.18z" fill="#FFEBCA"/>
  <path d="M98.75,57.07c-2.53,0.65-2.28,3.97-1.72,5.78c0.55,1.81,2.09,3.02,3.75,2.69s2.65-2.96,2.21-4.97 C102.57,58.55,101.09,56.47,98.75,57.07z" fill="#FFEBCA"/>
  <path d="M85.4,33.62c-1.84,1.6-1.05,4.18,0.55,5.91c1.6,1.72,3.69,2.15,5.05,1.11s0.92-4.68-0.68-6.21 C88.72,32.89,86.81,32.39,85.4,33.62z" fill="#FFEBCA"/>
  <path d="M76.46,54.55c-1.46,1.31-1.18,4.16,0.46,6.14c1.64,1.98,4.13,3.1,5.38,1.45 c1.25-1.65,0.33-4.88-0.98-6.6C80,53.82,77.7,53.43,76.46,54.55z" fill="#FFEBCA"/>
  <path d="M76.48,58.39c1.65,0.99,3.85-2.49,2.18-3.66C76.86,53.46,74.41,57.15,76.48,58.39z" fill="#FFFEFF"/>
  <path d="M76.88,79.24c-1.35,1.68-0.29,4.13,0.95,5.61c1.43,1.7,4.7,2.77,6.19,1.32 c1.73-1.68,0.95-4.6-1.29-6.62C81.04,78.03,78.24,77.53,76.88,79.24z" fill="#FFEBCA"/>
  <path d="M78.94,104.01c-0.58,2.09,0.3,4.04,4.18,4.68c3.38,0.55,5.11-1.05,5.05-2.77 c-0.04-1.17-1.35-3.14-4.55-3.69C81.05,101.78,79.43,102.23,78.94,104.01z" fill="#FFEBCA"/>
  <path d="M52.85,95.83c-1.31,1.96,0.3,4.67,1.91,5.91c1.84,1.42,4.92,1.11,5.72-0.62 c0.8-1.72-0.18-4.06-2.09-5.41C56.48,94.35,53.96,94.17,52.85,95.83z" fill="#FFEBCA"/>
  <path d="M31.87,83.83c-2.42,2.02-0.67,5.06,0.86,6.21c1.72,1.29,3.88,2.21,5.78,0.55s0.06-5.11-1.11-6.15 C36.24,83.4,33.72,82.29,31.87,83.83z" fill="#FFEBCA"/>
  <path d="M33.6,83.88c-1.63-0.31-3.51,2.89-1.48,4.06C34.01,89.03,35.87,84.31,33.6,83.88z" fill="#FFFFFE"/>
  <path d="M55.68,74.23c-1.28,1.93-0.06,4.92,1.54,5.97s4.06,1.78,5.54-0.12c1.48-1.91,0.62-4.37-1.11-5.78 C59.93,72.88,57.04,72.2,55.68,74.23z" fill="#FFEBCA"/>
  <path d="M57.9,73.74c-1.11-0.12-1.78,1.05-1.97,2.15c-0.18,1.11,0.12,2.21,1.29,2.46 c1.17,0.25,1.85-1.48,1.91-2.15C59.19,75.52,59.07,73.86,57.9,73.74z" fill="#FFFFFF"/>
</svg>

<svg viewBox="0 0 128 128" xmlns="http://www.w3.org/2000/svg">
  <defs/>
  <path d="M73.13,16.43 C72.55,15.85 55.41,16.06 55.41,16.06 L16.14,59.68 C16.14,59.68 14.77,72.52 16.03,77.9 C16.74,80.93 18.19,86.38 22.59,92.85 C25.6,97.28 27.96,99.2 27.96,99.2 L51.4,109.33 L90.59,113.36 L113.54,98.47 C113.54,98.47 115.25,91.63 114.64,86.63 C114.03,81.62 113.05,77.84 113.17,74.54 C113.29,71.24 115.25,57.99 112.15,48.5 C109.41,40.12 101.33,28.51 91.2,22.53 C81.07,16.55 73.13,16.43 73.13,16.43 Z" fill="#FF2A23"/>
  <path d="M67.15,116.99 C72.7,118.34 83.47,123.27 88.11,123.98 C92.91,124.71 99.74,124.78 106.98,119.29 C113.44,114.39 116.42,109.41 116.78,105.19 C117.29,99.28 116.26,94.05 115.94,91.55 C115.63,89.05 114.22,83.61 114.22,83.61 C114.22,83.61 110.21,92.49 105.2,96.66 C100.19,100.83 88.1,106.36 76.11,106.77 C64.12,107.19 56.09,107.5 47.64,105.41 C39.19,103.32 24.84,95.9 24.84,95.9 C24.84,95.9 29.88,103.4 39.72,108.95 C47.15,113.14 51.62,114.21 54.63,114.89 C59.31,115.96 62.87,115.94 67.15,116.99 Z" fill="#DC0D27"/>
  <path d="M35.87,33.05 C35.87,33.05 15.34,63.72 15.15,68.83 C14.94,74.67 16.15,78.15 16.15,78.15 C16.15,78.15 20.32,78 24.39,75.38 C26.28,74.17 27.7,72.96 27.7,72.96 C27.7,72.96 33.49,81.07 35.36,81.17 C37.23,81.27 42.21,77.67 44.4,75.07 C46.59,72.46 48.05,67.66 48.05,67.66 C48.05,67.66 51.43,69.19 58.52,68.98 C65.61,68.77 67.79,68.14 68.31,67.62 C68.83,67.1 69.53,63.81 70.15,61.2 C70.78,58.59 70.84,54.87 70.84,53.3 C70.84,51.74 70.4,49.36 70.4,49.36 C70.4,49.36 75.99,46.71 78.6,44.2 C81.21,41.7 82.46,40.45 82.88,39.61 C83.3,38.78 81.73,34.71 79.96,32 C78.19,29.29 75.79,27.41 75.79,27.41 C75.79,27.41 79.34,24.59 80.8,23.03 C82.26,21.47 84.16,19.04 84.16,19.04 C84.16,19.04 81.12,17.71 77.47,16.88 C73.82,16.05 66.52,15.11 66.52,15.11 L35.87,33.05 Z" fill="#DC0D27"/>
  <path d="M19.32,52.84 C19.03,53.04 10.24,66.81 10.14,68.07 C10.04,69.34 9.83,71.38 11.21,72.07 C12.19,72.56 12.97,71.68 13.65,71.09 C14.33,70.5 15.7,69.63 17.26,68.84 C18.82,68.05 21.5,67.52 23.41,66.4 C26.24,64.74 28.78,60.74 28.78,60.74 L35.71,70.7 L33.24,76.84 C33.24,76.84 34.98,78.93 35.33,79.19 C35.96,79.66 39.72,76.85 41.67,71.87 C43.62,66.89 44.11,60.54 44.11,60.54 C44.11,60.54 48.02,63.27 51.83,64.06 C55.64,64.84 63.44,64.45 63.94,63.86 C64.38,63.34 64.64,55.9 64.25,52.58 C63.86,49.26 62.03,44.87 62.03,44.87 C62.03,44.87 65.99,45.5 70.68,44.23 C75.37,42.96 78.88,40.23 79.08,39.15 C79.28,38.07 76.4,35.33 76.4,35.33 L64.82,31.24 L63.42,27.75 C63.42,27.75 69.34,26.01 72.43,22.35 C74.66,19.7 78.66,16.34 78.66,14.77 C78.66,13.2 76.14,13.56 76.14,13.56 L54.66,22.15 L19.32,52.84 Z" fill="#759937"/>
  <path d="M29.77,26.42 C36.08,20.62 42.45,15.86 52.72,13.19 C62.95,10.53 70.09,11.84 71.75,12.14 C73.41,12.43 78.41,13.34 78.02,13.87 C77.85,14.1 74.2,15.83 70.58,18.17 C66.96,20.51 65.44,21.27 64.53,21.78 C63.17,22.54 61.21,23.59 61.29,24.81 C61.41,26.47 63.65,26.57 66.09,27.84 C68.53,29.11 71.56,31.06 73.81,33.02 C76.06,34.98 77.19,35.76 77.5,36.53 C77.84,37.37 70.49,41.32 65.51,41.22 C60.53,41.12 58.19,38.88 57.01,40.63 C55.84,42.39 59.55,46.78 60.53,51.67 C61.51,56.56 61.51,61.44 61.51,61.44 C61.51,61.44 54.03,62 50.57,60.75 C45.36,58.87 44.71,54.86 41.88,55.38 C38.05,56.08 41.47,62.67 38.78,70.54 C36.38,77.58 34.34,78.12 34.34,78.12 C34.34,78.12 31.03,74.71 29.85,72.85 C28.67,70.99 27.32,70.03 27.03,66.03 C26.74,62.03 27.23,56.95 25.27,56.75 C23.31,56.55 22.83,60.66 20.58,62.71 C18.33,64.76 14.92,65.84 13.35,67.1 C11.79,68.37 10.17,70.63 10.17,70.63 C10.17,70.63 9.05,63.88 12.08,54.8 C15.11,45.72 20.1,35.31 29.77,26.42 Z" fill="#98B715"/>
  <path d="M17.95,7.09 C18.2,6.16 22.47,3.57 24.52,3.67 C26.57,3.77 26.16,4.35 26.45,5.13 C26.74,5.91 25.28,13.33 27.62,17.63 C29.73,21.5 31.62,23.39 35.82,23.29 C40.02,23.19 30.55,35.69 30.55,35.69 C30.55,35.69 22.44,31.2 19.22,22.9 C16,14.6 17.56,8.55 17.95,7.09 Z" fill="#98B715"/>
  <path d="M101.21,85.18 C99.36,85.27 97.66,87.79 98.63,91.21 C99.43,94.04 101.46,95.09 102.94,94.9 C104.42,94.72 105.77,92.44 105.22,89.24 C104.79,86.81 103.67,85.06 101.21,85.18 Z" fill="#FFEBCA"/>
  <path d="M98.75,57.07 C96.22,57.72 96.47,61.04 97.03,62.85 C97.58,64.66 99.12,65.87 100.78,65.54 C102.44,65.21 103.43,62.58 102.99,60.57 C102.57,58.55 101.09,56.47 98.75,57.07 Z" fill="#FFEBCA"/>
  <path d="M85.4,33.62 C83.56,35.22 84.35,37.8 85.95,39.53 C87.55,41.25 89.64,41.68 91,40.64 C92.36,39.6 91.92,35.96 90.32,34.43 C88.72,32.89 86.81,32.39 85.4,33.62 Z" fill="#FFEBCA"/>
  <path d="M76.46,54.55 C75,55.86 75.28,58.71 76.92,60.69 C78.56,62.67 81.05,63.79 82.3,62.14 C83.55,60.49 82.63,57.26 81.32,55.54 C80,53.82 77.7,53.43 76.46,54.55 Z" fill="#FFEBCA"/>
  <path d="M76.48,58.39 C78.13,59.38 80.33,55.9 78.66,54.73 C76.86,53.46 74.41,57.15 76.48,58.39 Z" fill="#FFFEFF"/>
  <path d="M76.88,79.24 C75.53,80.92 76.59,83.37 77.83,84.85 C79.26,86.55 82.53,87.62 84.02,86.17 C85.75,84.49 84.97,81.57 82.73,79.55 C81.04,78.03 78.24,77.53 76.88,79.24 Z" fill="#FFEBCA"/>
  <path d="M78.94,104.01 C78.36,106.1 79.24,108.05 83.12,108.69 C86.5,109.24 88.23,107.64 88.17,105.92 C88.13,104.75 86.82,102.78 83.62,102.23 C81.05,101.78 79.43,102.23 78.94,104.01 Z" fill="#FFEBCA"/>
  <path d="M52.85,95.83 C51.54,97.79 53.15,100.5 54.76,101.74 C56.6,103.16 59.68,102.85 60.48,101.12 C61.28,99.4 60.3,97.06 58.39,95.71 C56.48,94.35 53.96,94.17 52.85,95.83 Z" fill="#FFEBCA"/>
  <path d="M31.87,83.83 C29.45,85.85 31.2,88.89 32.73,90.04 C34.45,91.33 36.61,92.25 38.51,90.59 C40.41,88.93 38.57,85.48 37.4,84.44 C36.24,83.4 33.72,82.29 31.87,83.83 Z" fill="#FFEBCA"/>
  <path d="M33.6,83.88 C31.97,83.57 30.09,86.77 32.12,87.94 C34.01,89.03 35.87,84.31 33.6,83.88 Z" fill="#FFFFFE"/>
  <path d="M55.68,74.23 C54.4,76.16 55.62,79.15 57.22,80.2 C58.82,81.25 61.28,81.98 62.76,80.08 C64.24,78.17 63.38,75.71 61.65,74.3 C59.93,72.88 57.04,72.2 55.68,74.23 Z" fill="#FFEBCA"/>
  <path d="M57.9,73.74 C56.79,73.62 56.12,74.79 55.93,75.89 C55.75,77 56.05,78.1 57.22,78.35 C58.39,78.6 59.07,76.87 59.13,76.2 C59.19,75.52 59.07,73.86 57.9,73.74 Z" fill="#FFFFFF"/>
</svg>
